img/svg/editors/star-check.svg

<svg width="48" height="48" viewBox="0 0 48 48" fill="none" xmlns="http://www.w3.org/2000/svg">
<rect x="12.2559" y="15.3203" width="22.4681" height="17.3617" fill="white"/>
<path d="M43.1198 21.4772L40.3998 18.3172C39.8798 17.7172 39.4598 16.5972 39.4598 15.7972V12.3972C39.4598 10.2772 37.7198 8.53719 35.5998 8.53719H32.1998C31.4198 8.53719 30.2798 8.11719 29.6798 7.59719L26.5198 4.87719C25.1398 3.69719 22.8798 3.69719 21.4798 4.87719L18.3398 7.61719C17.7398 8.11719 16.5998 8.53719 15.8198 8.53719H12.3598C10.2398 8.53719 8.49977 10.2772 8.49977 12.3972V15.8172C8.49977 16.5972 8.07977 17.7172 7.57977 18.3172L4.87977 21.4972C3.71977 22.8772 3.71977 25.1172 4.87977 26.4972L7.57977 29.6772C8.07977 30.2772 8.49977 31.3972 8.49977 32.1772V35.5972C8.49977 37.7172 10.2398 39.4572 12.3598 39.4572H15.8198C16.5998 39.4572 17.7398 39.8772 18.3398 40.3972L21.4998 43.1172C22.8798 44.2972 25.1398 44.2972 26.5398 43.1172L29.6998 40.3972C30.2998 39.8772 31.4198 39.4572 32.2198 39.4572H35.6198C37.7398 39.4572 39.4798 37.7172 39.4798 35.5972V32.1972C39.4798 31.4172 39.8998 30.2772 40.4198 29.6772L43.1398 26.5172C44.2998 25.1372 44.2998 22.8572 43.1198 21.4772ZM32.3198 20.2172L22.6598 29.8772C22.3785 30.1581 21.9973 30.3159 21.5998 30.3159C21.2023 30.3159 20.821 30.1581 20.5398 29.8772L15.6998 25.0372C15.1198 24.4572 15.1198 23.4972 15.6998 22.9172C16.2798 22.3372 17.2398 22.3372 17.8198 22.9172L21.5998 26.6972L30.1998 18.0972C30.7798 17.5172 31.7398 17.5172 32.3198 18.0972C32.8998 18.6772 32.8998 19.6372 32.3198 20.2172Z" fill="#C47A2D"/>
</svg>

<svg width="48" height="48" fill="none" xmlns="http://www.w3.org/2000/svg"><path fill="#fff" d="M12.256 15.32h22.468v17.362H12.256z"/><path d="M43.12 21.477l-2.72-3.16c-.52-.6-.94-1.72-.94-2.52v-3.4c0-2.12-1.74-3.86-3.86-3.86h-3.4c-.78 0-1.92-.42-2.52-.94l-3.16-2.72c-1.38-1.18-3.64-1.18-5.04 0l-3.14 2.74c-.6.5-1.74.92-2.52.92h-3.46c-2.12 0-3.86 1.74-3.86 3.86v3.42c0 .78-.42 1.9-.92 2.5l-2.7 3.18c-1.16 1.38-1.16 3.62 0 5l2.7 3.18c.5.6.92 1.72.92 2.5v3.42c0 2.12 1.74 3.86 3.86 3.86h3.46c.78 0 1.92.42 2.52.94l3.16 2.72c1.38 1.18 3.64 1.18 5.04 0l3.16-2.72c.6-.52 1.72-.94 2.52-.94h3.4c2.12 0 3.86-1.74 3.86-3.86v-3.4c0-.78.42-1.92.94-2.52l2.72-3.16c1.16-1.38 1.16-3.66-.02-5.04zm-10.8-1.26l-9.66 9.66a1.5 1.5 0 01-2.12 0l-4.84-4.84c-.58-.58-.58-1.54 0-2.12.58-.58 1.54-.58 2.12 0l3.78 3.78 8.6-8.6c.58-.58 1.54-.58 2.12 0 .58.58.58 1.54 0 2.12z" fill="#C47A2D"/></svg>
